assets/images/phone.svg

<svg width="24" height="23" viewBox="0 0 24 23" fill="none" xmlns="http://www.w3.org/2000/svg">
<path d="M22.2966 16.4571C22.2341 16.4076 17.6985 13.1383 16.4535 13.373C15.8593 13.4781 15.5194 13.8835 14.8376 14.6948C14.7278 14.8259 14.4642 15.1398 14.2592 15.363C13.8283 15.2225 13.408 15.0514 13.0014 14.8511C10.9027 13.8294 9.20706 12.1337 8.18535 10.0351C7.98486 9.62851 7.81376 9.20813 7.67335 8.77714C7.89735 8.57143 8.21126 8.30781 8.34535 8.19505C9.15297 7.51695 9.55907 7.17715 9.66421 6.58133C9.87983 5.34705 6.61278 0.78019 6.5785 0.739052C6.43026 0.52729 6.23681 0.351134 6.01215 0.223316C5.78748 0.095498 5.53721 0.0192225 5.27945 0C3.95526 1.20006e-06 0.174683 4.90439 0.174683 5.73029C0.174683 5.77829 0.244016 10.6575 6.26077 16.7779C12.3751 22.7878 17.2536 22.8571 17.3015 22.8571C18.1282 22.8571 23.0318 19.0766 23.0318 17.7523C23.0129 17.4955 22.9369 17.246 22.8099 17.0221C22.6827 16.7981 22.5075 16.6051 22.2966 16.4571Z" fill="#FE0000"/>
</svg>

<svg xmlns="http://www.w3.org/2000/svg" width="24" height="23" fill="none"><path fill="#FE0000" d="M22.297 16.457c-.063-.05-4.599-3.319-5.844-3.084-.594.105-.934.51-1.615 1.322-.11.13-.374.445-.579.668a10.438 10.438 0 0 1-6.586-6.586c.224-.206.538-.47.672-.582.808-.678 1.214-1.018 1.32-1.614C9.88 5.347 6.612.781 6.578.74A1.74 1.74 0 0 0 5.279 0C3.955 0 .175 4.904.175 5.73c0 .048.069 4.928 6.086 11.048 6.114 6.01 10.993 6.08 11.04 6.08.827 0 5.73-3.781 5.73-5.106a1.74 1.74 0 0 0-.734-1.295"/></svg>
